X: 20801
T: Johnny Muise's
R: reel
M: 4/4
K: Amajor
eccB ~c2AB|~c2Bc BAFE|AE~E2 ABce|dfaf edcd|
eccB ~c2AB|~c2Bc BAFE|AE~E2 ABcA|1 BABc A afa:|2 BABc A2 cd||
eaa^g ~a2ga|ba^ga fecd|ec~c2 acec|fedc B2cd|
eaa^g ~a2ga|ba^ga fecd|ec~c2 acec|1 BABc A2 cd:|2 BABc A afa||

